public/apps/atelier-des-idees/src/img/icn_20px_comments.svg

<svg xmlns="http://www.w3.org/2000/svg" width="20" height="20" viewBox="0 0 20 20"><path fill="#B7C8DB" fill-rule="evenodd" d="M14.3631727,15.375 L9.72680909,17 L9.72680909,15.375 L3.40327273,15.375 C2.62745455,15.375 2,14.713625 2,13.897875 L2,5.477125 C2,4.661375 2.62745455,4 3.40327273,4 L17.5951818,4 C18.371,4 19,4.661375 19,5.477125 L19,13.897875 C19,14.713625 18.371,15.375 17.5951818,15.375 L14.3631727,15.375 Z M5.09044545,8.875 L15.9086273,8.875 L15.9086273,7.25 L5.09044545,7.25 L5.09044545,8.875 Z M5.09044545,12.125 L15.9086273,12.125 L15.9086273,10.5 L5.09044545,10.5 L5.09044545,12.125 Z"/></svg>

<svg viewBox="0 0 20 20"><path fill="#B7C8DB" fill-rule="evenodd" d="M14.363 15.375L9.727 17v-1.625H3.403c-.776 0-1.403-.661-1.403-1.477v-8.42C2 4.66 2.627 4 3.403 4h14.192C18.371 4 19 4.661 19 5.477v8.42c0 .817-.629 1.478-1.405 1.478h-3.232zm-9.273-6.5h10.82V7.25H5.09v1.625zm0 3.25h10.82V10.5H5.09v1.625z"/></svg>
